X: 1
T: Maggie O'Ham
M: 12/8
L: 1/8
R: slide
K: Amaj
|: E | ABc e2 f e2 c B3 | ABc e2 c B3 E3 |
ABc e2 f e2 c BAB | c3 A3 A3- A2 :|
|: E | A2 A A2 A G2 G G2 G | FGA E2 C B,2 A, B,2 C |
A,B,C E2 F E2 C B,A,B, | C3 A,3 A,3-A,2 :|
